public/svg/white/tusd.svg

<svg width="32" height="32" viewBox="0 0 32 32" version="1.1" xmlns="http://www.w3.org/2000/svg" xmlns:xlink="http://www.w3.org/1999/xlink"><title>white/tusd</title><desc>Created with Sketch.</desc><g id="white/tusd" stroke="none" stroke-width="1" fill="none" fill-rule="evenodd"><path d="M16,32 C7.163444,32 0,24.836556 0,16 C0,7.163444 7.163444,0 16,0 C24.836556,0 32,7.163444 32,16 C32,24.836556 24.836556,32 16,32 Z M17.0571128,19.0279241 L17.0571128,13.1685985 L17.8279241,13.1685985 C20.3721812,13.1685985 20.9992624,10.7947313 20.9992624,10.7947313 L14.3158061,10.7947313 C11.1444679,10.7947313 10.6066386,13.1685985 10.6066386,13.1685985 L14.5487882,13.1685985 L14.5487882,21.9859852 C14.5487882,21.9859852 17.0571128,21.2325606 17.0571128,19.0279241 Z M24.3954689,23.5936776 C26.6429926,21.2580611 27.5053741,18.0136986 26.6963119,14.9107482 C26.2825079,13.3065332 25.4201264,11.8263435 24.2158061,10.6312961 C24.1080084,10.5246575 24.0002107,10.4168599 23.8738672,10.3102213 L23.7660695,10.2035827 C23.6942044,10.1317176 23.6037935,10.0610116 23.5319283,10.0076923 L23.3881981,9.90105374 C23.316333,9.84773446 23.2444679,9.79441517 23.1726027,9.74109589 L23.0462592,9.65184405 C22.9384615,9.57997893 22.8665964,9.52665964 22.7947313,9.47334036 L22.6324552,9.36670179 C22.5605901,9.31338251 22.488725,9.27744995 22.4168599,9.24151739 L22.2545838,9.13487882 C22.1827187,9.09894626 22.1108535,9.04562698 22.0389884,9.00969442 L21.8767123,8.92044257 C21.8048472,8.88451001 21.7329821,8.84857745 21.6425711,8.813804 L21.5880927,8.79641728 C21.7863014,8.95637513 21.9833509,9.13487882 22.1630137,9.31338251 C25.6148577,12.7362487 25.6148577,18.3173867 22.1630137,21.7402529 C17.7769231,26.090411 10.6576396,26.090411 6.27038988,21.7402529 C6.1081138,21.580295 5.96438356,21.4191781 5.8032666,21.2592202 L5.67692308,21.1166491 C5.58651212,21.0100105 5.49726027,20.9022129 5.40684932,20.7781876 C5.96438356,21.8839831 6.70158061,22.881981 7.5825079,23.7733404 C12.1668072,28.3193888 19.6094837,28.3193888 24.1937829,23.7733404 C24.2876712,23.718862 24.3421496,23.6655427 24.3954689,23.5936776 Z M10.4003161,22.3858799 C10.2021075,22.2247629 10.0038988,22.0462592 9.82423604,21.8689146 C6.36891465,18.4425711 6.36891465,12.8567966 9.82423604,9.43045311 C14.2149631,5.07565859 21.3400421,5.07565859 25.7307692,9.43045311 C26.0367756,9.7341412 26.324236,10.055216 26.5943098,10.3936776 C26.0367756,9.3052687 25.2984194,8.28756586 24.4174921,7.41359326 C19.8285564,2.86290832 12.3789252,2.86290832 7.79114858,7.41359326 C7.73667018,7.46691254 7.6833509,7.53877766 7.61148577,7.59209694 C4.56996839,10.7692308 4.15616438,15.5158061 6.58566913,19.1206533 C7.53962065,20.5115911 8.87028451,21.6718651 10.4003161,22.3858799 Z" id="Combined-Shape" fill="#FFF" fill-rule="nonzero"/></g></svg>

<svg width="32" height="32" viewBox="0 0 32 32" xmlns="http://www.w3.org/2000/svg"><path d="M16 32C7.163 32 0 24.837 0 16S7.163 0 16 0s16 7.163 16 16-7.163 16-16 16zm1.057-12.972v-5.86h.77c2.545 0 3.172-2.373 3.172-2.373h-6.683c-3.172 0-3.71 2.374-3.71 2.374h3.943v8.817s2.508-.753 2.508-2.958zm7.338 4.566c2.248-2.336 3.11-5.58 2.301-8.683a9.339 9.339 0 00-2.48-4.28c-.108-.106-.216-.214-.342-.32l-.108-.107a2.185 2.185 0 00-.234-.196l-.144-.107-.215-.16-.127-.09a4.15 4.15 0 01-.251-.178l-.163-.106a1.38 1.38 0 00-.215-.125l-.162-.107c-.072-.036-.144-.09-.216-.125l-.162-.09a2.52 2.52 0 00-.234-.106l-.055-.018c.198.16.395.339.575.517a8.75 8.75 0 010 12.427c-4.386 4.35-11.505 4.35-15.893 0-.162-.16-.306-.32-.467-.48l-.126-.143a5.762 5.762 0 01-.27-.339 11.856 11.856 0 002.176 2.995c4.584 4.546 12.026 4.546 16.61 0a.614.614 0 00.202-.18zM10.4 22.386a8.168 8.168 0 01-.576-.517 8.758 8.758 0 010-12.439c4.391-4.354 11.516-4.354 15.907 0 .306.304.593.625.863.964a11.784 11.784 0 00-2.177-2.98c-4.588-4.551-12.038-4.551-16.626 0-.054.053-.108.125-.18.178-3.041 3.177-3.455 7.924-1.025 11.529.954 1.39 2.284 2.55 3.814 3.265z" fill="#FFF"/></svg>
